images/skills/1-skills-frontend-sm.svg

<?xml version="1.0" encoding="UTF-8" standalone="no"?>
<svg width="56px" height="56px" viewBox="0 0 56 56" version="1.1" xmlns="http://www.w3.org/2000/svg" xmlns:xlink="http://www.w3.org/1999/xlink" xmlns:sketch="http://www.bohemiancoding.com/sketch/ns">
    <!-- Generator: Sketch 3.2.2 (9983) - http://www.bohemiancoding.com/sketch -->
    <title>frontend</title>
    <desc>Created with Sketch.</desc>
    <defs></defs>
    <g id="Small" stroke="none" stroke-width="1" fill="none" fill-rule="evenodd" sketch:type="MSPage">
        <g id="frontend" sketch:type="MSLayerGroup" fill="#FFFFFF">
            <path d="M27.9234954,23.4364308 C25.4682831,23.4364308 23.4322954,25.4086646 23.4322954,27.8592246 C23.4322954,30.3694031 25.4682831,32.3418092 27.9234954,32.3418092 C30.3785354,32.3418092 32.4146954,30.3694031 32.4146954,27.8592246 C32.4146954,25.4086646 30.3785354,23.4364308 27.9234954,23.4364308 L27.9234954,23.4364308 Z M27.9234954,31.0865477 C26.1869785,31.0865477 24.74976,29.6522585 24.74976,27.8592246 C24.74976,27.5006523 24.9890954,27.2614892 25.3485292,27.2614892 C25.7077908,27.2614892 26.0072615,27.5006523 26.0072615,27.8592246 C26.0072615,28.9349415 26.8455385,29.7716677 27.9234954,29.7716677 C29.00128,29.7716677 29.8395569,28.9349415 29.8395569,27.8592246 C29.8395569,26.8431262 29.00128,25.9466092 27.9234954,25.9466092 C27.5640615,25.9466092 27.2647631,25.7076185 27.2647631,25.3488738 C27.2647631,24.9903015 27.5640615,24.69152 27.9234954,24.69152 C29.6600123,24.69152 31.0972308,26.1259815 31.0972308,27.8592246 C31.0972308,29.6522585 29.6600123,31.0865477 27.9234954,31.0865477 L27.9234954,31.0865477 Z" id="Fill-1" sketch:type="MSShapeGroup"></path>
            <path d="M27.9234954,20.2089354 C21.2165908,20.2089354 15.4678892,26.2453908 14.0906338,27.8592246 C15.4678892,29.4728862 21.2165908,35.5095138 27.9234954,35.5095138 C34.6304,35.5095138 40.3791015,29.4728862 41.7563569,27.8592246 C40.3791015,26.2453908 34.6304,20.2089354 27.9234954,20.2089354 L27.9234954,20.2089354 Z M27.9234954,33.5968985 C24.74976,33.5968985 22.1747938,31.0267569 22.1747938,27.8592246 C22.1747938,24.69152 24.74976,22.1215508 27.9234954,22.1215508 C31.0972308,22.1215508 33.6721969,24.69152 33.6721969,27.8592246 C33.6721969,31.0267569 31.0972308,33.5968985 27.9234954,33.5968985 L27.9234954,33.5968985 Z" id="Fill-2" sketch:type="MSShapeGroup"></path>
            <path d="M0,0 L0,56 L27.0523077,56 L27.0523077,54.1435569 L5.60103385,41.7992615 C5.33395692,41.6453908 5.16923077,41.3607385 5.16923077,41.05248 L5.16923077,15.8667815 C5.16923077,15.5585231 5.33395692,15.2738708 5.60103385,15.12 L27.4841108,2.52706462 C27.7501538,2.37405538 28.0775385,2.37405538 28.3435815,2.52706462 L50.2266585,15.12 C50.4937354,15.2738708 50.6584615,15.5585231 50.6584615,15.8667815 L50.6584615,41.05248 C50.6584615,41.3607385 50.4937354,41.6455631 50.2264862,41.7992615 L31.2280123,52.7271877 C30.8155077,52.9644554 30.2889354,52.8224738 30.0516677,52.4099692 C29.8144,51.9974646 29.9563815,51.4708923 30.3688862,51.2336246 L48.9353846,40.5541662 L48.9353846,16.3649231 L27.9138462,4.26788923 L6.89230769,16.3649231 L6.89230769,40.5541662 L28.3435815,52.8986338 C28.6106585,53.0525046 28.7753846,53.3371569 28.7753846,53.6454154 L28.7753846,56 L56,56 L56,0 L0,0 L0,0 Z M27.9234954,36.8243938 C19.5996554,36.8243938 13.0126769,28.63616 12.7132062,28.2775877 C12.5334892,28.0384246 12.5334892,27.7396431 12.7132062,27.5006523 C13.0126769,27.1419077 19.5996554,18.9538462 27.9234954,18.9538462 C36.2471631,18.9538462 42.8341415,27.1419077 43.1336123,27.5006523 C43.3133292,27.7396431 43.3133292,28.0384246 43.1336123,28.2775877 C42.8341415,28.63616 36.2471631,36.8243938 27.9234954,36.8243938 L27.9234954,36.8243938 Z" id="Fill-3" sketch:type="MSShapeGroup"></path>
        </g>
    </g>
</svg>

<svg width="56" height="56" viewBox="0 0 56 56" xmlns="http://www.w3.org/2000/svg"><title>frontend</title><desc>Created with Sketch.</desc><g fill="#fff"><path d="M27.923 23.436c-2.455 0-4.49 1.973-4.49 4.423 0 2.51 2.035 4.482 4.49 4.482 2.456 0 4.492-1.973 4.492-4.483 0-2.45-2.036-4.424-4.492-4.424zm0 7.65c-1.736 0-3.173-1.434-3.173-3.227 0-.36.24-.6.6-.6.358 0 .657.24.657.6 0 1.075.84 1.912 1.916 1.912 1.078 0 1.917-.837 1.917-1.913 0-1.017-.84-1.913-1.917-1.913-.36 0-.658-.24-.658-.598 0-.36.3-.658.658-.658 1.737 0 3.174 1.434 3.174 3.167 0 1.792-1.437 3.227-3.174 3.227z"/><path d="M27.923 20.21c-6.706 0-12.455 6.035-13.832 7.65 1.378 1.613 7.127 7.65 13.833 7.65 6.707 0 12.456-6.037 13.833-7.65-1.377-1.615-7.126-7.65-13.833-7.65zm0 13.387c-3.173 0-5.748-2.57-5.748-5.738 0-3.168 2.575-5.738 5.748-5.738 3.174 0 5.75 2.57 5.75 5.737 0 3.167-2.576 5.737-5.75 5.737z"/><path d="M0 0v56h27.052v-1.856L5.602 41.8c-.268-.155-.433-.44-.433-.748V15.867c0-.308.164-.593.43-.747L27.485 2.527c.266-.153.594-.153.86 0L50.227 15.12c.267.154.43.44.43.747v25.185c0 .31-.163.594-.43.747l-19 10.927c-.41.237-.938.095-1.175-.317-.238-.413-.096-.94.317-1.176l18.565-10.68v-24.19L27.915 4.27 6.89 16.365v24.19l21.452 12.344c.267.153.43.437.43.745V56H56V0H0zm27.923 36.824c-8.323 0-14.91-8.188-15.21-8.546-.18-.24-.18-.538 0-.777.3-.358 6.887-8.546 15.21-8.546 8.324 0 14.91 8.188 15.21 8.547.18.24.18.538 0 .778-.3.358-6.886 8.546-15.21 8.546z"/></g></svg>
